; G-Code generated by Simplify3D(R) Version 4.0.0
; Jun 6, 2018 at 10:46:10 PM
; Settings Summary
;   processName,Aquamonitor Insert
;   applyToModels,battery,battery(2)
;   profileName,Wanhao Duplicator 4/4X Dual (modified)
;   profileVersion,2015-05-01 08:00:00
;   baseProfile,
;   printMaterial,ABS
;   printQuality,High
;   printExtruders,Left Extruder Only
;   extruderName,Right Extruder,Left Extruder
;   extruderToolheadNumber,0,1
;   extruderDiameter,0.4,0.4
;   extruderAutoWidth,0,1
;   extruderWidth,0.4,0.48
;   extrusionMultiplier,1,1
;   extruderUseRetract,1,1
;   extruderRetractionDistance,1,1
;   extruderExtraRestartDistance,0,0
;   extruderRetractionZLift,0,0
;   extruderRetractionSpeed,1200,1200
;   extruderUseCoasting,0,0
;   extruderCoastingDistance,0.2,0.2
;   extruderUseWipe,0,0
;   extruderWipeDistance,5,5
;   primaryExtruder,1
;   layerHeight,0.1
;   topSolidLayers,4
;   bottomSolidLayers,3
;   perimeterOutlines,2
;   printPerimetersInsideOut,1
;   startPointOption,1
;   startPointOriginX,0
;   startPointOriginY,0
;   sequentialIslands,0
;   spiralVaseMode,0
;   firstLayerHeightPercentage,90
;   firstLayerWidthPercentage,100
;   firstLayerUnderspeed,0.5
;   useRaft,0
;   raftExtruder,1
;   raftTopLayers,3
;   raftBaseLayers,2
;   raftOffset,3
;   raftSeparationDistance,0.14
;   raftTopInfill,100
;   aboveRaftSpeedMultiplier,0.3
;   useSkirt,1
;   skirtExtruder,1
;   skirtLayers,4
;   skirtOutlines,2
;   skirtOffset,4
;   usePrimePillar,0
;   primePillarExtruder,999
;   primePillarWidth,12
;   primePillarLocation,7
;   primePillarSpeedMultiplier,1
;   useOozeShield,0
;   oozeShieldExtruder,999
;   oozeShieldOffset,2
;   oozeShieldOutlines,1
;   oozeShieldSidewallShape,1
;   oozeShieldSidewallAngle,30
;   oozeShieldSpeedMultiplier,1
;   infillExtruder,1
;   internalInfillPattern,Rectilinear
;   externalInfillPattern,Rectilinear
;   infillPercentage,30
;   outlineOverlapPercentage,80
;   infillExtrusionWidthPercentage,100
;   minInfillLength,2
;   infillLayerInterval,1
;   internalInfillAngles,45,-45
;   overlapInternalInfillAngles,0
;   externalInfillAngles,45,-45
;   generateSupport,1
;   supportExtruder,1
;   supportInfillPercentage,40
;   supportExtraInflation,0
;   supportBaseLayers,0
;   denseSupportExtruder,1
;   denseSupportLayers,0
;   denseSupportInfillPercentage,70
;   supportLayerInterval,1
;   supportHorizontalPartOffset,0.3
;   supportUpperSeparationLayers,1
;   supportLowerSeparationLayers,1
;   supportType,0
;   supportGridSpacing,4
;   maxOverhangAngle,45
;   supportAngles,0
;   temperatureName,Right Extruder,Left Extruder,Heated Build Platform
;   temperatureNumber,0,1,0
;   temperatureSetpointCount,1,1,1
;   temperatureSetpointLayers,1,1,1
;   temperatureSetpointTemperatures,0,225,105
;   temperatureStabilizeAtStartup,0,0,0
;   temperatureHeatedBed,0,0,1
;   temperatureRelayBetweenLayers,0,0,0
;   temperatureRelayBetweenLoops,0,0,0
;   fanLayers,1
;   fanSpeeds,0
;   blipFanToFullPower,0
;   adjustSpeedForCooling,1
;   minSpeedLayerTime,1
;   minCoolingSpeedSlowdown,30
;   increaseFanForCooling,0
;   minFanLayerTime,45
;   maxCoolingFanSpeed,100
;   increaseFanForBridging,1
;   bridgingFanSpeed,100
;   use5D,1
;   relativeEdistances,1
;   allowEaxisZeroing,0
;   independentExtruderAxes,1
;   includeM10123,0
;   stickySupport,1
;   applyToolheadOffsets,0
;   gcodeXoffset,0
;   gcodeYoffset,0
;   gcodeZoffset,0
;   overrideMachineDefinition,1
;   machineTypeOverride,0
;   strokeXoverride,220
;   strokeYoverride,140
;   strokeZoverride,150
;   originOffsetXoverride,110
;   originOffsetYoverride,70
;   originOffsetZoverride,0
;   homeXdirOverride,1
;   homeYdirOverride,1
;   homeZdirOverride,-1
;   flipXoverride,1
;   flipYoverride,-1
;   flipZoverride,1
;   toolheadOffsets,0,0|34,0|0,0|0,0|0,0|0,0
;   overrideFirmwareConfiguration,1
;   firmwareTypeOverride,MakerBot/Sailfish Firmware
;   GPXconfigOverride,r1d
;   baudRateOverride,115200
;   overridePrinterModels,0
;   printerModelsOverride
;   startingGcode,; **** Duplicator 4 dual start.gcode ****,M73 P0 ; enable build progress,G162 X Y F3000 ; home XY maximum,G161 Z F1200 ; home Z minimum,G92 Z-5 ; set Z to -5,G1 Z0 ; move Z to 0,G161 Z F100 ; home Z slowly,M132 X Y Z A B ; recall home offsets,M135 T0 ; load right extruder offsets,G1 X-120 Y-70 Z30 F9000 ; move to wait position off table,G130 X20 Y20 Z20 A20 B20 ; lower stepper Vrefs while heating,M126 S[fan_speed_pwm],M140 S[bed0_temperature] T0,M134 T0 ; stabilize bed temperature,M104 S[extruder1_temperature] T1,M133 T1 ; stabilize extruder temperature,G130 X127 Y127 Z40 A127 B127 ; default stepper Vrefs,G92 A0 B0 ; zero extruders,M135 T1 ; load left extruder offsets,G1 Z0.4 ; position nozzle,G1 E25 F300 ; purge nozzle,G1 X-115 Y-65 Z0.15 F1200 ; slow wipe,G1 X-110 Y-60 Z0.5 F1200 ; lift,G92 A0 B0 ; zero extruders,M73 P1 ;@body (notify GPX body has started),; **** end of start.gcode ****
;   layerChangeGcode,
;   retractionGcode,
;   toolChangeGcode,
;   endingGcode,; **** Duplicator 4 dual end.gcode ****,M73 P100 ; end build progress,G1 Z150 F1000 ; send Z axis to bottom of machine,M140 S0 T0 ; cool down HBP,M104 S0 T0 ; cool down right extruder,M104 S0 T1 ; cool down left extruder,M127 ; stop blower fan,G162 X Y F3000 ; home XY maximum,M18 ; disable stepper,M72 P1 ; play Ta-Da song,; **** end of end.gcode ****
;   exportFileFormat,x3g
;   celebration,0
;   celebrationSong,Random Song
;   postProcessing,
;   defaultSpeed,2000
;   outlineUnderspeed,0.6
;   solidInfillUnderspeed,0.8
;   supportUnderspeed,0.8
;   rapidXYspeed,4000
;   rapidZspeed,1200
;   minBridgingArea,50
;   bridgingExtraInflation,0
;   bridgingExtrusionMultiplier,1
;   bridgingSpeedMultiplier,0.8
;   useFixedBridgingAngle,0
;   fixedBridgingAngle,0
;   applyBridgingToPerimeters,0
;   filamentDiameters,1.75|1.75|1.75|1.75|1.75|1.75
;   filamentPricesPerKg,46|46|46|46|46|46
;   filamentDensities,1.25|1.25|1.25|1.25|1.25|1.25
;   useMinPrintHeight,0
;   minPrintHeight,0
;   useMaxPrintHeight,0
;   maxPrintHeight,4
;   useDiaphragm,0
;   diaphragmLayerInterval,20
;   robustSlicing,1
;   mergeAllIntoSolid,0
;   onlyRetractWhenCrossingOutline,1
;   retractBetweenLayers,1
;   useRetractionMinTravel,0
;   retractionMinTravel,3
;   retractWhileWiping,0
;   onlyWipeOutlines,1
;   avoidCrossingOutline,1
;   maxMovementDetourFactor,3
;   toolChangeRetractionDistance,12
;   toolChangeExtraRestartDistance,-0.5
;   toolChangeRetractionSpeed,600
;   externalThinWallType,0
;   internalThinWallType,2
;   thinWallAllowedOverlapPercentage,10
;   singleExtrusionMinLength,0.6
;   singleExtrusionMinPrintingWidthPercentage,50
;   singleExtrusionMaxPrintingWidthPercentage,200
;   singleExtrusionEndpointExtension,0.2
;   horizontalSizeCompensation,0
G90
M83
; **** Duplicator 4 dual start.gcode ****
M73 P0 ; enable build progress
G162 X Y F3000 ; home XY maximum
G161 Z F1200 ; home Z minimum
G92 Z-5 ; set Z to -5
G1 Z0 ; move Z to 0
G161 Z F100 ; home Z slowly
M132 X Y Z A B ; recall home offsets
M135 T0 ; load right extruder offsets
G1 X-120 Y-70 Z30 F9000 ; move to wait position off table
G130 X20 Y20 Z20 A20 B20 ; lower stepper Vrefs while heating
M127
M140 S105 T0
M134 T0 ; stabilize bed temperature
M104 S225 T1
M133 T1 ; stabilize extruder temperature
G130 X127 Y127 Z40 A127 B127 ; default stepper Vrefs
G92 A0 B0 ; zero extruders
M135 T1 ; load left extruder offsets
G1 Z0.4 ; position nozzle
G1 E25 F300 ; purge nozzle
G1 X-115 Y-65 Z0.15 F1200 ; slow wipe
G1 X-110 Y-60 Z0.5 F1200 ; lift
G92 A0 B0 ; zero extruders
M73 P1 ;@body (notify GPX body has started)
; **** end of start.gcode ****
G1 E-1.0000 F1200
G1 Z0.090 F1200
; process Aquamonitor Insert
; layer 1, Z = 0.090
M135 T1
; tool H0.100 W0.480
; skirt
G1 X1.484 Y-9.809 F4000
G1 E1.0000 F360
G1 X0.545 Y-9.995 E0.0191 F1000
G1 X0.532 Y-9.998 E0.0003
G1 X0.365 Y-10.038 E0.0034
G1 X0.351 Y-10.042 E0.0003
G1 X-0.569 Y-10.301 E0.0191
G1 X-0.583 Y-10.306 E0.0003
G1 X-0.746 Y-10.358 E0.0034
G1 X-0.759 Y-10.363 E0.0003
G1 X-1.657 Y-10.694 E0.0191
G1 X-1.670 Y-10.700 E0.0003
G1 X-1.830 Y-10.766 E0.0034
G1 X-1.843 Y-10.772 E0.0003
G1 X-2.718 Y-11.176 E0.0192
G1 X-2.731 Y-11.182 E0.0003
G1 X-2.882 Y-11.259 E0.0034
G1 X-2.894 Y-11.266 E0.0003
G1 X-3.721 Y-11.729 E0.0189
G1 X-3.733 Y-11.736 E0.0003
G1 X-3.879 Y-11.825 E0.0034
G1 X-3.891 Y-11.833 E0.0003
G1 X-4.687 Y-12.364 E0.0191
G1 X-4.698 Y-12.372 E0.0003
G1 X-4.837 Y-12.473 E0.0034
G1 X-4.848 Y-12.482 E0.0003
G1 X-5.599 Y-13.074 E0.0191
G1 X-5.610 Y-13.083 E0.0003
G1 X-5.740 Y-13.194 E0.0034
G1 X-5.751 Y-13.203 E0.0003
G1 X-6.453 Y-13.852 E0.0191
G1 X-6.463 Y-13.862 E0.0003
G1 X-6.585 Y-13.983 E0.0034
G1 X-6.594 Y-13.994 E0.0003
G1 X-7.244 Y-14.696 E0.0191
G1 X-7.253 Y-14.706 E0.0003
G1 X-7.364 Y-14.837 E0.0034
G1 X-7.373 Y-14.848 E0.0003
G1 X-7.965 Y-15.599 E0.0191
G1 X-7.974 Y-15.610 E0.0003
G1 X-8.074 Y-15.749 E0.0034
G1 X-8.083 Y-15.760 E0.0003
G1 X-8.614 Y-16.555 E0.0191
G1 X-8.621 Y-16.567 E0.0003
G1 X-8.711 Y-16.713 E0.0034
G1 X-8.718 Y-16.725 E0.0003
G1 X-9.185 Y-17.560 E0.0191
G1 X-9.192 Y-17.572 E0.0003
G1 X-9.270 Y-17.725 E0.0034
G1 X-9.276 Y-17.738 E0.0003
G1 X-9.676 Y-18.606 E0.0191
G1 X-9.682 Y-18.619 E0.0003
G1 X-9.748 Y-18.777 E0.0034
G1 X-9.753 Y-18.791 E0.0003
G1 X-10.084 Y-19.688 E0.0191
G1 X-10.088 Y-19.701 E0.0003
G1 X-10.141 Y-19.864 E0.0034
G1 X-10.146 Y-19.878 E0.0003
G1 X-10.405 Y-20.798 E0.0191
G1 X-10.409 Y-20.812 E0.0003
G1 X-10.449 Y-20.978 E0.0034
G1 X-10.452 Y-20.992 E0.0003
G1 X-10.638 Y-21.930 E0.0191
G1 X-10.641 Y-21.944 E0.0003
G1 X-10.668 Y-22.113 E0.0034
G1 X-10.669 Y-22.127 E0.0003
G1 X-10.782 Y-23.077 E0.0191
G1 X-10.783 Y-23.091 E0.0003
G1 X-10.797 Y-23.262 E0.0034
G1 X-10.798 Y-23.276 E0.0003
G1 X-10.833 Y-24.189 E0.0182
G1 X-10.834 Y-24.196 E0.0001
G1 X-10.835 Y-24.282 E0.0017
G1 X-10.835 Y-24.289 E0.0001
G1 X-10.835 Y-36.132 E0.2363
G1 X-10.759 Y-36.315 E0.0040
G1 X-10.759 Y-46.033 E0.1939
G1 X-10.759 Y-46.040 E0.0001
G1 X-10.758 Y-46.126 E0.0017
G1 X-10.757 Y-46.133 E0.0001
G1 X-10.721 Y-47.046 E0.0182
G1 X-10.721 Y-47.060 E0.0003
G1 X-10.707 Y-47.230 E0.0034
G1 X-10.706 Y-47.245 E0.0003
G1 X-10.593 Y-48.194 E0.0191
G1 X-10.591 Y-48.208 E0.0003
G1 X-10.565 Y-48.378 E0.0034
G1 X-10.562 Y-48.392 E0.0003
G1 X-10.376 Y-49.330 E0.0191
G1 X-10.373 Y-49.343 E0.0003
G1 X-10.333 Y-49.510 E0.0034
G1 X-10.329 Y-49.524 E0.0003
G1 X-10.069 Y-50.444 E0.0191
G1 X-10.065 Y-50.458 E0.0003
G1 X-10.012 Y-50.620 E0.0034
G1 X-10.008 Y-50.634 E0.0003
G1 X-9.677 Y-51.531 E0.0191
G1 X-9.672 Y-51.544 E0.0003
G1 X-9.606 Y-51.703 E0.0034
G1 X-9.600 Y-51.715 E0.0003
G1 X-9.200 Y-52.584 E0.0191
G1 X-9.194 Y-52.597 E0.0003
G1 X-9.116 Y-52.749 E0.0034
G1 X-9.109 Y-52.762 E0.0003
G1 X-8.642 Y-53.596 E0.0191
G1 X-8.635 Y-53.608 E0.0003
G1 X-8.545 Y-53.755 E0.0034
G1 X-8.538 Y-53.766 E0.0003
G1 X-8.006 Y-54.562 E0.0191
G1 X-7.998 Y-54.573 E0.0003
G1 X-7.898 Y-54.712 E0.0034
G1 X-7.889 Y-54.723 E0.0003
G1 X-7.297 Y-55.474 E0.0191
G1 X-7.288 Y-55.485 E0.0003
G1 X-7.177 Y-55.615 E0.0034
G1 X-7.167 Y-55.626 E0.0003
G1 X-6.518 Y-56.328 E0.0191
G1 X-6.508 Y-56.338 E0.0003
G1 X-6.387 Y-56.459 E0.0034
G1 X-6.377 Y-56.469 E0.0003
G1 X-5.675 Y-57.118 E0.0191
G1 X-5.664 Y-57.128 E0.0003
G1 X-5.534 Y-57.239 E0.0034
G1 X-5.523 Y-57.248 E0.0003
G1 X-4.772 Y-57.840 E0.0191
G1 X-4.761 Y-57.849 E0.0003
G1 X-4.622 Y-57.949 E0.0034
G1 X-4.611 Y-57.957 E0.0003
G1 X-3.815 Y-58.489 E0.0191
G1 X-3.803 Y-58.496 E0.0003
G1 X-3.657 Y-58.586 E0.0034
G1 X-3.645 Y-58.593 E0.0003
G1 X-2.811 Y-59.060 E0.0191
G1 X-2.798 Y-59.067 E0.0003
G1 X-2.646 Y-59.145 E0.0034
G1 X-2.633 Y-59.151 E0.0003
G1 X-1.764 Y-59.551 E0.0191
G1 X-1.751 Y-59.557 E0.0003
G1 X-1.593 Y-59.623 E0.0034
G1 X-1.580 Y-59.628 E0.0003
G1 X-0.683 Y-59.959 E0.0191
G1 X-0.669 Y-59.963 E0.0003
G1 X-0.507 Y-60.016 E0.0034
G1 X-0.493 Y-60.020 E0.0003
G1 X0.427 Y-60.280 E0.0191
G1 X0.441 Y-60.284 E0.0003
G1 X0.608 Y-60.324 E0.0034
G1 X0.621 Y-60.327 E0.0003
G1 X1.560 Y-60.513 E0.0191
G1 X1.573 Y-60.516 E0.0003
G1 X1.743 Y-60.542 E0.0034
G1 X1.757 Y-60.544 E0.0003
G1 X2.706 Y-60.657 E0.0191
G1 X2.720 Y-60.658 E0.0003
G1 X2.891 Y-60.672 E0.0034
G1 X2.905 Y-60.672 E0.0003
G1 X3.861 Y-60.710 E0.0191
G1 X3.875 Y-60.710 E0.0003
G1 X4.046 Y-60.710 E0.0034
G1 X4.060 Y-60.710 E0.0003
G1 X5.016 Y-60.672 E0.0191
G1 X5.030 Y-60.672 E0.0003
G1 X5.201 Y-60.658 E0.0034
G1 X5.215 Y-60.657 E0.0003
G1 X6.165 Y-60.544 E0.0191
G1 X6.179 Y-60.542 E0.0003
G1 X6.348 Y-60.516 E0.0034
G1 X6.362 Y-60.513 E0.0003
G1 X7.300 Y-60.327 E0.0191
G1 X7.314 Y-60.324 E0.0003
G1 X7.480 Y-60.284 E0.0034
G1 X7.494 Y-60.280 E0.0003
G1 X8.415 Y-60.020 E0.0191
G1 X8.428 Y-60.016 E0.0003
G1 X8.591 Y-59.963 E0.0034
G1 X8.604 Y-59.959 E0.0003
G1 X9.502 Y-59.628 E0.0191
G1 X9.515 Y-59.623 E0.0003
G1 X9.673 Y-59.557 E0.0034
G1 X9.686 Y-59.551 E0.0003
G1 X10.554 Y-59.151 E0.0191
G1 X10.567 Y-59.145 E0.0003
G1 X10.720 Y-59.067 E0.0034
G1 X10.732 Y-59.060 E0.0003
G1 X11.567 Y-58.593 E0.0191
G1 X11.579 Y-58.586 E0.0003
G1 X11.725 Y-58.496 E0.0034
G1 X11.737 Y-58.489 E0.0003
G1 X12.532 Y-57.957 E0.0191
G1 X12.544 Y-57.949 E0.0003
G1 X12.682 Y-57.849 E0.0034
G1 X12.694 Y-57.840 E0.0003
G1 X13.445 Y-57.248 E0.0191
G1 X13.456 Y-57.239 E0.0003
G1 X13.586 Y-57.128 E0.0034
G1 X13.596 Y-57.118 E0.0003
G1 X14.299 Y-56.469 E0.0191
G1 X14.309 Y-56.459 E0.0003
G1 X14.430 Y-56.338 E0.0034
G1 X14.440 Y-56.328 E0.0003
G1 X15.089 Y-55.626 E0.0191
G1 X15.098 Y-55.615 E0.0003
G1 X15.210 Y-55.485 E0.0034
G1 X15.219 Y-55.474 E0.0003
G1 X15.811 Y-54.723 E0.0191
G1 X15.819 Y-54.712 E0.0003
G1 X15.920 Y-54.573 E0.0034
G1 X15.928 Y-54.562 E0.0003
G1 X16.459 Y-53.766 E0.0191
G1 X16.467 Y-53.754 E0.0003
G1 X16.556 Y-53.608 E0.0034
G1 X16.563 Y-53.596 E0.0003
G1 X17.031 Y-52.762 E0.0191
G1 X17.037 Y-52.749 E0.0003
G1 X17.115 Y-52.597 E0.0034
G1 X17.121 Y-52.584 E0.0003
G1 X17.522 Y-51.715 E0.0191
G1 X17.527 Y-51.703 E0.0003
G1 X17.593 Y-51.544 E0.0034
G1 X17.598 Y-51.531 E0.0003
G1 X17.929 Y-50.634 E0.0191
G1 X17.934 Y-50.621 E0.0003
G1 X17.987 Y-50.458 E0.0034
G1 X17.991 Y-50.444 E0.0003
G1 X18.250 Y-49.523 E0.0191
G1 X18.254 Y-49.510 E0.0003
G1 X18.294 Y-49.343 E0.0034
G1 X18.297 Y-49.330 E0.0003
G1 X18.484 Y-48.392 E0.0191
G1 X18.486 Y-48.378 E0.0003
G1 X18.513 Y-48.209 E0.0034
G1 X18.515 Y-48.194 E0.0003
G1 X18.627 Y-47.245 E0.0191
G1 X18.629 Y-47.231 E0.0003
G1 X18.642 Y-47.060 E0.0034
G1 X18.643 Y-47.046 E0.0003
G1 X18.679 Y-46.133 E0.0182
G1 X18.679 Y-46.126 E0.0001
G1 X18.681 Y-46.040 E0.0017
G1 X18.681 Y-46.033 E0.0001
G1 X18.681 Y-34.190 E0.2363
G1 X18.605 Y-34.007 E0.0040
G1 X18.605 Y-24.289 E0.1939
G1 X18.605 Y-24.282 E0.0001
G1 X18.603 Y-24.196 E0.0017
G1 X18.603 Y-24.189 E0.0001
G1 X18.567 Y-23.276 E0.0182
G1 X18.566 Y-23.262 E0.0003
G1 X18.553 Y-23.091 E0.0034
G1 X18.551 Y-23.077 E0.0003
G1 X18.439 Y-22.127 E0.0191
G1 X18.437 Y-22.113 E0.0003
G1 X18.410 Y-21.944 E0.0034
G1 X18.408 Y-21.930 E0.0003
G1 X18.221 Y-20.992 E0.0191
G1 X18.218 Y-20.978 E0.0003
G1 X18.178 Y-20.812 E0.0034
G1 X18.174 Y-20.798 E0.0003
G1 X17.915 Y-19.878 E0.0191
G1 X17.911 Y-19.864 E0.0003
G1 X17.858 Y-19.701 E0.0034
G1 X17.853 Y-19.688 E0.0003
G1 X17.522 Y-18.791 E0.0191
G1 X17.517 Y-18.777 E0.0003
G1 X17.451 Y-18.619 E0.0034
G1 X17.446 Y-18.606 E0.0003
G1 X17.045 Y-17.738 E0.0191
G1 X17.039 Y-17.725 E0.0003
G1 X16.961 Y-17.572 E0.0034
G1 X16.955 Y-17.560 E0.0003
G1 X16.487 Y-16.725 E0.0191
G1 X16.480 Y-16.713 E0.0003
G1 X16.391 Y-16.567 E0.0034
G1 X16.383 Y-16.555 E0.0003
G1 X15.852 Y-15.760 E0.0191
G1 X15.844 Y-15.749 E0.0003
G1 X15.743 Y-15.610 E0.0034
G1 X15.735 Y-15.599 E0.0003
G1 X15.142 Y-14.848 E0.0191
G1 X15.133 Y-14.837 E0.0003
G1 X15.022 Y-14.707 E0.0034
G1 X15.013 Y-14.696 E0.0003
G1 X14.364 Y-13.994 E0.0191
G1 X14.354 Y-13.983 E0.0003
G1 X14.233 Y-13.862 E0.0034
G1 X14.223 Y-13.853 E0.0003
G1 X13.520 Y-13.203 E0.0191
G1 X13.510 Y-13.194 E0.0003
G1 X13.379 Y-13.083 E0.0034
G1 X13.368 Y-13.074 E0.0003
G1 X12.617 Y-12.481 E0.0191
G1 X12.605 Y-12.472 E0.0003
G1 X12.465 Y-12.371 E0.0035
G1 X12.454 Y-12.363 E0.0003
G1 X11.652 Y-11.828 E0.0192
