; G-Code generated by Simplify3D(R) Version 4.0.0
; Jun 3, 2018 at 7:14:08 AM
; Settings Summary
;   processName,Aquamonitor Insert
;   applyToModels,cover
;   profileName,Wanhao Duplicator 4/4X Dual (modified)
;   profileVersion,2015-05-01 08:00:00
;   baseProfile,
;   printMaterial,ABS
;   printQuality,High
;   printExtruders,Left Extruder Only
;   extruderName,Right Extruder,Left Extruder
;   extruderToolheadNumber,0,1
;   extruderDiameter,0.4,0.4
;   extruderAutoWidth,0,1
;   extruderWidth,0.4,0.48
;   extrusionMultiplier,1,1
;   extruderUseRetract,1,1
;   extruderRetractionDistance,1,1
;   extruderExtraRestartDistance,0,0
;   extruderRetractionZLift,0,0
;   extruderRetractionSpeed,1200,1200
;   extruderUseCoasting,0,0
;   extruderCoastingDistance,0.2,0.2
;   extruderUseWipe,0,0
;   extruderWipeDistance,5,5
;   primaryExtruder,1
;   layerHeight,0.1
;   topSolidLayers,4
;   bottomSolidLayers,3
;   perimeterOutlines,2
;   printPerimetersInsideOut,1
;   startPointOption,1
;   startPointOriginX,0
;   startPointOriginY,0
;   sequentialIslands,0
;   spiralVaseMode,0
;   firstLayerHeightPercentage,90
;   firstLayerWidthPercentage,100
;   firstLayerUnderspeed,0.5
;   useRaft,0
;   raftExtruder,1
;   raftTopLayers,3
;   raftBaseLayers,2
;   raftOffset,3
;   raftSeparationDistance,0.14
;   raftTopInfill,100
;   aboveRaftSpeedMultiplier,0.3
;   useSkirt,1
;   skirtExtruder,1
;   skirtLayers,2
;   skirtOutlines,2
;   skirtOffset,4
;   usePrimePillar,0
;   primePillarExtruder,999
;   primePillarWidth,12
;   primePillarLocation,7
;   primePillarSpeedMultiplier,1
;   useOozeShield,0
;   oozeShieldExtruder,999
;   oozeShieldOffset,2
;   oozeShieldOutlines,1
;   oozeShieldSidewallShape,1
;   oozeShieldSidewallAngle,30
;   oozeShieldSpeedMultiplier,1
;   infillExtruder,1
;   internalInfillPattern,Rectilinear
;   externalInfillPattern,Rectilinear
;   infillPercentage,30
;   outlineOverlapPercentage,80
;   infillExtrusionWidthPercentage,100
;   minInfillLength,2
;   infillLayerInterval,1
;   internalInfillAngles,45,-45
;   overlapInternalInfillAngles,0
;   externalInfillAngles,45,-45
;   generateSupport,0
;   supportExtruder,1
;   supportInfillPercentage,40
;   supportExtraInflation,0
;   supportBaseLayers,0
;   denseSupportExtruder,1
;   denseSupportLayers,0
;   denseSupportInfillPercentage,70
;   supportLayerInterval,1
;   supportHorizontalPartOffset,0.3
;   supportUpperSeparationLayers,1
;   supportLowerSeparationLayers,1
;   supportType,0
;   supportGridSpacing,4
;   maxOverhangAngle,45
;   supportAngles,0
;   temperatureName,Right Extruder,Left Extruder,Heated Build Platform
;   temperatureNumber,0,1,0
;   temperatureSetpointCount,1,1,1
;   temperatureSetpointLayers,1,1,1
;   temperatureSetpointTemperatures,0,225,105
;   temperatureStabilizeAtStartup,0,0,0
;   temperatureHeatedBed,0,0,1
;   temperatureRelayBetweenLayers,0,0,0
;   temperatureRelayBetweenLoops,0,0,0
;   fanLayers,1
;   fanSpeeds,0
;   blipFanToFullPower,0
;   adjustSpeedForCooling,1
;   minSpeedLayerTime,1
;   minCoolingSpeedSlowdown,30
;   increaseFanForCooling,0
;   minFanLayerTime,45
;   maxCoolingFanSpeed,100
;   increaseFanForBridging,1
;   bridgingFanSpeed,100
;   use5D,1
;   relativeEdistances,1
;   allowEaxisZeroing,0
;   independentExtruderAxes,1
;   includeM10123,0
;   stickySupport,1
;   applyToolheadOffsets,0
;   gcodeXoffset,0
;   gcodeYoffset,0
;   gcodeZoffset,0
;   overrideMachineDefinition,1
;   machineTypeOverride,0
;   strokeXoverride,220
;   strokeYoverride,140
;   strokeZoverride,150
;   originOffsetXoverride,110
;   originOffsetYoverride,70
;   originOffsetZoverride,0
;   homeXdirOverride,1
;   homeYdirOverride,1
;   homeZdirOverride,-1
;   flipXoverride,1
;   flipYoverride,-1
;   flipZoverride,1
;   toolheadOffsets,0,0|34,0|0,0|0,0|0,0|0,0
;   overrideFirmwareConfiguration,1
;   firmwareTypeOverride,MakerBot/Sailfish Firmware
;   GPXconfigOverride,r1d
;   baudRateOverride,115200
;   overridePrinterModels,0
;   printerModelsOverride
;   startingGcode,; **** Duplicator 4 dual start.gcode ****,M73 P0 ; enable build progress,G162 X Y F3000 ; home XY maximum,G161 Z F1200 ; home Z minimum,G92 Z-5 ; set Z to -5,G1 Z0 ; move Z to 0,G161 Z F100 ; home Z slowly,M132 X Y Z A B ; recall home offsets,M135 T0 ; load right extruder offsets,G1 X-120 Y-70 Z30 F9000 ; move to wait position off table,G130 X20 Y20 Z20 A20 B20 ; lower stepper Vrefs while heating,M126 S[fan_speed_pwm],M140 S[bed0_temperature] T0,M134 T0 ; stabilize bed temperature,M104 S[extruder1_temperature] T1,M133 T1 ; stabilize extruder temperature,G130 X127 Y127 Z40 A127 B127 ; default stepper Vrefs,G92 A0 B0 ; zero extruders,M135 T1 ; load left extruder offsets,G1 Z0.4 ; position nozzle,G1 E25 F300 ; purge nozzle,G1 X-115 Y-65 Z0.15 F1200 ; slow wipe,G1 X-110 Y-60 Z0.5 F1200 ; lift,G92 A0 B0 ; zero extruders,M73 P1 ;@body (notify GPX body has started),; **** end of start.gcode ****
;   layerChangeGcode,
;   retractionGcode,
;   toolChangeGcode,
;   endingGcode,; **** Duplicator 4 dual end.gcode ****,M73 P100 ; end build progress,G1 Z150 F1000 ; send Z axis to bottom of machine,M140 S0 T0 ; cool down HBP,M104 S0 T0 ; cool down right extruder,M104 S0 T1 ; cool down left extruder,M127 ; stop blower fan,G162 X Y F3000 ; home XY maximum,M18 ; disable stepper,M72 P1 ; play Ta-Da song,; **** end of end.gcode ****
;   exportFileFormat,x3g
;   celebration,0
;   celebrationSong,Random Song
;   postProcessing,
;   defaultSpeed,2000
;   outlineUnderspeed,0.6
;   solidInfillUnderspeed,0.8
;   supportUnderspeed,0.8
;   rapidXYspeed,4000
;   rapidZspeed,1200
;   minBridgingArea,50
;   bridgingExtraInflation,0
;   bridgingExtrusionMultiplier,1
;   bridgingSpeedMultiplier,0.8
;   useFixedBridgingAngle,0
;   fixedBridgingAngle,0
;   applyBridgingToPerimeters,0
;   filamentDiameters,1.75|1.75|1.75|1.75|1.75|1.75
;   filamentPricesPerKg,46|46|46|46|46|46
;   filamentDensities,1.25|1.25|1.25|1.25|1.25|1.25
;   useMinPrintHeight,0
;   minPrintHeight,0
;   useMaxPrintHeight,0
;   maxPrintHeight,4
;   useDiaphragm,0
;   diaphragmLayerInterval,20
;   robustSlicing,1
;   mergeAllIntoSolid,0
;   onlyRetractWhenCrossingOutline,1
;   retractBetweenLayers,1
;   useRetractionMinTravel,0
;   retractionMinTravel,3
;   retractWhileWiping,0
;   onlyWipeOutlines,1
;   avoidCrossingOutline,1
;   maxMovementDetourFactor,3
;   toolChangeRetractionDistance,12
;   toolChangeExtraRestartDistance,-0.5
;   toolChangeRetractionSpeed,600
;   externalThinWallType,0
;   internalThinWallType,2
;   thinWallAllowedOverlapPercentage,10
;   singleExtrusionMinLength,0.6
;   singleExtrusionMinPrintingWidthPercentage,50
;   singleExtrusionMaxPrintingWidthPercentage,200
;   singleExtrusionEndpointExtension,0.2
;   horizontalSizeCompensation,0
G90
M83
; **** Duplicator 4 dual start.gcode ****
M73 P0 ; enable build progress
G162 X Y F3000 ; home XY maximum
G161 Z F1200 ; home Z minimum
G92 Z-5 ; set Z to -5
G1 Z0 ; move Z to 0
G161 Z F100 ; home Z slowly
M132 X Y Z A B ; recall home offsets
M135 T0 ; load right extruder offsets
G1 X-120 Y-70 Z30 F9000 ; move to wait position off table
G130 X20 Y20 Z20 A20 B20 ; lower stepper Vrefs while heating
M127
M140 S105 T0
M134 T0 ; stabilize bed temperature
M104 S225 T1
M133 T1 ; stabilize extruder temperature
G130 X127 Y127 Z40 A127 B127 ; default stepper Vrefs
G92 A0 B0 ; zero extruders
M135 T1 ; load left extruder offsets
G1 Z0.4 ; position nozzle
G1 E25 F300 ; purge nozzle
G1 X-115 Y-65 Z0.15 F1200 ; slow wipe
G1 X-110 Y-60 Z0.5 F1200 ; lift
G92 A0 B0 ; zero extruders
M73 P1 ;@body (notify GPX body has started)
; **** end of start.gcode ****
G1 E-1.0000 F1200
G1 Z0.090 F1200
; process Aquamonitor Insert
; layer 1, Z = 0.090
M135 T1
; tool H0.100 W0.480
; skirt
G1 X-21.233 Y0.437 F4000
G1 E1.0000 F360
G1 X-21.497 Y0.327 E0.0057 F1000
G1 X-24.043 Y-2.218 E0.0718
G1 X-24.153 Y-2.483 E0.0057
G1 X-24.153 Y-46.683 E0.8821
G1 X-24.043 Y-46.948 E0.0057
G1 X-21.497 Y-49.493 E0.0718
G1 X-21.233 Y-49.603 E0.0057
G1 X22.967 Y-49.603 E0.8821
G1 X23.232 Y-49.493 E0.0057
G1 X25.778 Y-46.948 E0.0718
G1 X25.887 Y-46.683 E0.0057
G1 X25.887 Y-2.483 E0.8821
G1 X25.778 Y-2.218 E0.0057
G1 X23.232 Y0.327 E0.0718
G1 X22.967 Y0.437 E0.0057
G1 X-21.233 Y0.437 E0.8821
G1 X-21.137 Y-0.043 F4000
G1 X-21.225 Y-0.080 E0.0019 F1000
G1 X-23.636 Y-2.490 E0.0680
G1 X-23.673 Y-2.578 E0.0019
G1 X-23.673 Y-46.588 E0.8783
G1 X-23.636 Y-46.676 E0.0019
G1 X-21.225 Y-49.086 E0.0680
G1 X-21.137 Y-49.123 E0.0019
G1 X22.872 Y-49.123 E0.8783
G1 X22.960 Y-49.086 E0.0019
G1 X25.371 Y-46.676 E0.0680
G1 X25.407 Y-46.588 E0.0019
G1 X25.407 Y-2.578 E0.8783
G1 X25.371 Y-2.490 E0.0019
G1 X22.960 Y-0.080 E0.0680
G1 X22.872 Y-0.043 E0.0019
G1 X-21.137 Y-0.043 E0.8783
G1 E-1.0000 F1200
; inner perimeter
G1 X-19.197 Y-4.518 F4000
G1 X-16.919 Y-4.518 F4000
G1 X20.447 Y-44.163 F4000
G1 E1.0000 F1200
G1 X20.447 Y-5.003 E0.7815 F800
G1 X-18.713 Y-5.003 E0.7815
G1 X-18.713 Y-44.163 E0.7815
G1 X20.447 Y-44.163 E0.7815
; outer perimeter
G1 X20.927 Y-4.523 F4000
G1 X-19.193 Y-4.523 E0.8006 F600
G1 X-19.193 Y-44.643 E0.8006
G1 X20.927 Y-44.643 E0.8006
G1 X20.927 Y-4.523 E0.8006
; inner perimeter
G1 X0.430 Y-30.048 F4000
G1 X-3.868 Y-30.048 F4000
G1 X-3.868 Y-35.399 F4000
G1 X-4.353 Y-36.003 F4000
G1 X-4.353 Y-29.563 E0.1285 F800
G1 X6.087 Y-29.563 E0.2083
G1 X6.087 Y-36.003 E0.1285
G1 X-4.353 Y-36.003 E0.2083
; outer perimeter
G1 X-3.542 Y-35.518 F4000
G1 X-3.868 Y-35.518 F4000
G1 X-3.868 Y-30.048 F4000
G1 X5.599 Y-30.048 F4000
G1 X5.607 Y-30.043 F4000
G1 X5.607 Y-35.523 E0.1094 F600
G1 X-3.873 Y-35.523 E0.1892
G1 X-3.873 Y-30.043 E0.1094
G1 X5.607 Y-30.043 E0.1892
; solid layer
G1 X6.183 Y-35.980 F4000
G1 X20.351 Y-21.812 E0.3999 F800
G1 X20.351 Y-21.133 E0.0135
G1 X6.183 Y-35.301 E0.3999
G1 X6.183 Y-34.622 E0.0135
G1 X20.351 Y-20.454 E0.3999
G1 X20.351 Y-19.776 E0.0135
G1 X6.183 Y-33.944 E0.3999
G1 X6.183 Y-33.265 E0.0135
G1 X20.351 Y-19.097 E0.3999
G1 X20.351 Y-18.418 E0.0135
G1 X6.183 Y-32.586 E0.3999
G1 X6.183 Y-31.907 E0.0135
G1 X20.351 Y-17.739 E0.3999
G1 X20.351 Y-17.060 E0.0135
G1 X6.183 Y-31.228 E0.3999
G1 X6.183 Y-30.549 E0.0135
G1 X20.351 Y-16.381 E0.3999
G1 X20.351 Y-15.703 E0.0135
G1 X6.183 Y-29.871 E0.3999
G1 X6.183 Y-29.467 E0.0081
G1 X5.908 Y-29.467 E0.0055
G1 X20.351 Y-15.024 E0.4076
G1 X20.351 Y-14.345 E0.0135
G1 X5.229 Y-29.467 E0.4268
G1 X4.550 Y-29.467 E0.0135
G1 X20.351 Y-13.666 E0.4459
G1 X20.351 Y-12.987 E0.0135
G1 X3.872 Y-29.467 E0.4651
G1 X3.193 Y-29.467 E0.0135
G1 X20.351 Y-12.308 E0.4843
G1 X20.351 Y-11.630 E0.0135
G1 X2.514 Y-29.467 E0.5034
G1 X1.835 Y-29.467 E0.0135
G1 X20.351 Y-10.951 E0.5226
G1 X20.351 Y-10.272 E0.0135
G1 X1.156 Y-29.467 E0.5417
G1 X0.478 Y-29.467 E0.0135
G1 X20.351 Y-9.593 E0.5609
G1 X20.351 Y-8.914 E0.0135
G1 X-0.201 Y-29.467 E0.5800
G1 X-0.880 Y-29.467 E0.0135
G1 X20.351 Y-8.236 E0.5992
G1 X20.351 Y-7.557 E0.0135
G1 X-1.559 Y-29.467 E0.6184
G1 X-2.238 Y-29.467 E0.0135
G1 X20.351 Y-6.878 E0.6375
G1 X20.351 Y-6.199 E0.0135
G1 X-2.917 Y-29.467 E0.6567
G1 X-3.595 Y-29.467 E0.0135
G1 X20.351 Y-5.520 E0.6758
G1 X20.351 Y-5.099 E0.0084
G1 X20.094 Y-5.099 E0.0051
G1 X-4.274 Y-29.467 E0.6877
G1 X-3.316 Y-30.048 F4000
G1 X5.603 Y-30.048 F4000
G1 X5.603 Y-35.452 F4000
G1 X19.819 Y-44.067 F4000
G1 X20.351 Y-43.534 E0.0150 F800
G1 X20.351 Y-42.855 E0.0135
G1 X19.140 Y-44.067 E0.0342
G1 X18.461 Y-44.067 E0.0135
G1 X20.351 Y-42.177 E0.0534
G1 X20.351 Y-41.498 E0.0135
G1 X17.782 Y-44.067 E0.0725
G1 X17.103 Y-44.067 E0.0135
G1 X20.351 Y-40.819 E0.0917
G1 X20.351 Y-40.140 E0.0135
G1 X16.425 Y-44.067 E0.1108
G1 X15.746 Y-44.067 E0.0135
G1 X20.351 Y-39.461 E0.1300
G1 X20.351 Y-38.783 E0.0135
G1 X15.067 Y-44.067 E0.1491
G1 X14.388 Y-44.067 E0.0135
G1 X20.351 Y-38.104 E0.1683
G1 X20.351 Y-37.425 E0.0135
G1 X13.709 Y-44.067 E0.1875
G1 X13.030 Y-44.067 E0.0135
G1 X20.351 Y-36.746 E0.2066
G1 X20.351 Y-36.067 E0.0135
G1 X12.352 Y-44.067 E0.2258
G1 X11.673 Y-44.067 E0.0135
G1 X20.351 Y-35.388 E0.2449
G1 X20.351 Y-34.710 E0.0135
G1 X10.994 Y-44.067 E0.2641
G1 X10.315 Y-44.067 E0.0135
G1 X20.351 Y-34.031 E0.2832
G1 X20.351 Y-33.352 E0.0135
G1 X9.636 Y-44.067 E0.3024
G1 X8.957 Y-44.067 E0.0135
G1 X20.351 Y-32.673 E0.3216
G1 X20.351 Y-31.994 E0.0135
G1 X8.279 Y-44.067 E0.3407
G1 X7.600 Y-44.067 E0.0135
G1 X20.351 Y-31.315 E0.3599
G1 X20.351 Y-30.637 E0.0135
G1 X6.921 Y-44.067 E0.3790
G1 X6.242 Y-44.067 E0.0135
G1 X20.351 Y-29.958 E0.3982
G1 X20.351 Y-29.279 E0.0135
G1 X5.563 Y-44.067 E0.4173
G1 X4.885 Y-44.067 E0.0135
G1 X20.351 Y-28.600 E0.4365
G1 X20.351 Y-27.921 E0.0135
G1 X4.206 Y-44.067 E0.4557
G1 X3.527 Y-44.067 E0.0135
G1 X20.351 Y-27.243 E0.4748
G1 X20.351 Y-26.564 E0.0135
G1 X2.848 Y-44.067 E0.4940
G1 X2.169 Y-44.067 E0.0135
G1 X20.351 Y-25.885 E0.5131
G1 X20.351 Y-25.206 E0.0135
G1 X1.490 Y-44.067 E0.5323
G1 X0.812 Y-44.067 E0.0135
G1 X20.351 Y-24.527 E0.5515
G1 X20.351 Y-23.848 E0.0135
G1 X0.133 Y-44.067 E0.5706
G1 X-0.546 Y-44.067 E0.0135
G1 X20.351 Y-23.170 E0.5898
G1 X20.351 Y-22.491 E0.0135
G1 X-1.225 Y-44.067 E0.6089
G1 X-1.904 Y-44.067 E0.0135
G1 X6.064 Y-36.099 E0.2249
G1 X5.386 Y-36.099 E0.0135
G1 X-2.583 Y-44.067 E0.2249
G1 X-3.261 Y-44.067 E0.0135
G1 X4.707 Y-36.099 E0.2249
G1 X4.028 Y-36.099 E0.0135
G1 X-3.940 Y-44.067 E0.2249
G1 X-4.619 Y-44.067 E0.0135
G1 X3.349 Y-36.099 E0.2249
G1 X2.670 Y-36.099 E0.0135
G1 X-5.298 Y-44.067 E0.2249
G1 X-5.977 Y-44.067 E0.0135
G1 X1.991 Y-36.099 E0.2249
G1 X1.313 Y-36.099 E0.0135
G1 X-6.655 Y-44.067 E0.2249
G1 X-7.334 Y-44.067 E0.0135
G1 X0.634 Y-36.099 E0.2249
G1 X-0.045 Y-36.099 E0.0135
G1 X-8.013 Y-44.067 E0.2249
G1 X-8.692 Y-44.067 E0.0135
G1 X-0.724 Y-36.099 E0.2249
G1 X-1.403 Y-36.099 E0.0135
G1 X-9.371 Y-44.067 E0.2249
G1 X-10.050 Y-44.067 E0.0135
G1 X-2.082 Y-36.099 E0.2249
G1 X-2.760 Y-36.099 E0.0135
G1 X-10.728 Y-44.067 E0.2249
G1 X-11.407 Y-44.067 E0.0135
G1 X-3.439 Y-36.099 E0.2249
G1 X-4.118 Y-36.099 E0.0135
G1 X-12.086 Y-44.067 E0.2249
G1 X-12.765 Y-44.067 E0.0135
G1 X-4.449 Y-35.751 E0.2347
G1 X-4.449 Y-35.072 E0.0135
G1 X-13.444 Y-44.067 E0.2539
G1 X-14.122 Y-44.067 E0.0135
G1 X-4.449 Y-34.393 E0.2730
G1 X-4.449 Y-33.714 E0.0135
G1 X-14.801 Y-44.067 E0.2922
G1 X-15.480 Y-44.067 E0.0135
G1 X-4.449 Y-33.036 E0.3113
G1 X-4.449 Y-32.357 E0.0135
G1 X-16.159 Y-44.067 E0.3305
G1 X-16.838 Y-44.067 E0.0135
G1 X-4.449 Y-31.678 E0.3496
G1 X-4.449 Y-30.999 E0.0135
G1 X-17.517 Y-44.067 E0.3688
G1 X-18.195 Y-44.067 E0.0135
G1 X-4.449 Y-30.320 E0.3880
G1 X-4.449 Y-29.641 E0.0135
G1 X-18.617 Y-43.809 E0.3999
G1 X-18.617 Y-43.131 E0.0135
G1 X19.415 Y-5.099 E1.0733
G1 X18.736 Y-5.099 E0.0135
G1 X-18.617 Y-42.452 E1.0542
G1 X-18.617 Y-41.773 E0.0135
G1 X18.057 Y-5.099 E1.0350
G1 X17.378 Y-5.099 E0.0135
G1 X-18.617 Y-41.094 E1.0159
G1 X-18.617 Y-40.415 E0.0135
G1 X16.700 Y-5.099 E0.9967
G1 X16.021 Y-5.099 E0.0135
G1 X-18.617 Y-39.736 E0.9775
G1 X-18.617 Y-39.058 E0.0135
G1 X15.342 Y-5.099 E0.9584
G1 X14.663 Y-5.099 E0.0135
G1 X-18.617 Y-38.379 E0.9392
G1 X-18.617 Y-37.700 E0.0135
G1 X13.984 Y-5.099 E0.9201
G1 X13.306 Y-5.099 E0.0135
G1 X-18.617 Y-37.021 E0.9009
G1 X-18.617 Y-36.342 E0.0135
G1 X12.627 Y-5.099 E0.8818
G1 X11.948 Y-5.099 E0.0135
G1 X-18.617 Y-35.664 E0.8626
G1 X-18.617 Y-34.985 E0.0135
G1 X11.269 Y-5.099 E0.8434
G1 X10.590 Y-5.099 E0.0135
G1 X-18.617 Y-34.306 E0.8243
G1 X-18.617 Y-33.627 E0.0135
G1 X9.911 Y-5.099 E0.8051
G1 X9.233 Y-5.099 E0.0135
G1 X-18.617 Y-32.948 E0.7860
G1 X-18.617 Y-32.269 E0.0135
G1 X8.554 Y-5.099 E0.7668
G1 X7.875 Y-5.099 E0.0135
G1 X-18.617 Y-31.591 E0.7476
G1 X-18.617 Y-30.912 E0.0135
G1 X7.196 Y-5.099 E0.7285
G1 X6.517 Y-5.099 E0.0135
G1 X-18.617 Y-30.233 E0.7093
G1 X-18.617 Y-29.554 E0.0135
G1 X5.838 Y-5.099 E0.6902
G1 X5.160 Y-5.099 E0.0135
G1 X-18.617 Y-28.875 E0.6710
G1 X-18.617 Y-28.196 E0.0135
G1 X4.481 Y-5.099 E0.6519
G1 X3.802 Y-5.099 E0.0135
G1 X-18.617 Y-27.518 E0.6327
G1 X-18.617 Y-26.839 E0.0135
G1 X3.123 Y-5.099 E0.6135
G1 X2.444 Y-5.099 E0.0135
G1 X-18.617 Y-26.160 E0.5944
G1 X-18.617 Y-25.481 E0.0135
G1 X1.766 Y-5.099 E0.5752
G1 X1.087 Y-5.099 E0.0135
G1 X-18.617 Y-24.802 E0.5561
G1 X-18.617 Y-24.124 E0.0135
