; G-Code generated by Simplify3D(R) Version 4.0.0
; May 27, 2018 at 4:51:04 PM
; Settings Summary
;   processName,Oled
;   applyToModels,oledPanel
;   profileName,Wanhao Duplicator 4/4X Dual (modified)
;   profileVersion,2015-05-01 08:00:00
;   baseProfile,
;   printMaterial,ABS
;   printQuality,High
;   printExtruders,Left Extruder Only
;   extruderName,Left Extruder
;   extruderToolheadNumber,1
;   extruderDiameter,0.4
;   extruderAutoWidth,0
;   extruderWidth,0.4
;   extrusionMultiplier,1
;   extruderUseRetract,1
;   extruderRetractionDistance,1
;   extruderExtraRestartDistance,0
;   extruderRetractionZLift,0
;   extruderRetractionSpeed,1200
;   extruderUseCoasting,0
;   extruderCoastingDistance,0.2
;   extruderUseWipe,0
;   extruderWipeDistance,5
;   primaryExtruder,0
;   layerHeight,0.1
;   topSolidLayers,4
;   bottomSolidLayers,4
;   perimeterOutlines,4
;   printPerimetersInsideOut,1
;   startPointOption,1
;   startPointOriginX,0
;   startPointOriginY,0
;   sequentialIslands,0
;   spiralVaseMode,0
;   firstLayerHeightPercentage,90
;   firstLayerWidthPercentage,100
;   firstLayerUnderspeed,0.5
;   useRaft,0
;   raftExtruder,0
;   raftTopLayers,3
;   raftBaseLayers,2
;   raftOffset,3
;   raftSeparationDistance,0.14
;   raftTopInfill,100
;   aboveRaftSpeedMultiplier,0.3
;   useSkirt,1
;   skirtExtruder,0
;   skirtLayers,4
;   skirtOutlines,2
;   skirtOffset,4
;   usePrimePillar,0
;   primePillarExtruder,999
;   primePillarWidth,12
;   primePillarLocation,7
;   primePillarSpeedMultiplier,1
;   useOozeShield,0
;   oozeShieldExtruder,999
;   oozeShieldOffset,2
;   oozeShieldOutlines,1
;   oozeShieldSidewallShape,1
;   oozeShieldSidewallAngle,30
;   oozeShieldSpeedMultiplier,1
;   infillExtruder,0
;   internalInfillPattern,Grid
;   externalInfillPattern,Concentric
;   infillPercentage,40
;   outlineOverlapPercentage,30
;   infillExtrusionWidthPercentage,100
;   minInfillLength,5
;   infillLayerInterval,1
;   internalInfillAngles,45,-45
;   overlapInternalInfillAngles,1
;   externalInfillAngles,45,-45
;   generateSupport,0
;   supportExtruder,0
;   supportInfillPercentage,30
;   supportExtraInflation,0.2
;   supportBaseLayers,0
;   denseSupportExtruder,0
;   denseSupportLayers,0
;   denseSupportInfillPercentage,70
;   supportLayerInterval,1
;   supportHorizontalPartOffset,0.3
;   supportUpperSeparationLayers,1
;   supportLowerSeparationLayers,1
;   supportType,0
;   supportGridSpacing,4
;   maxOverhangAngle,45
;   supportAngles,0
;   temperatureName,Right Extruder,Left Extruder,Heated Build Platform
;   temperatureNumber,0,1,0
;   temperatureSetpointCount,1,2,2
;   temperatureSetpointLayers,1,1,2,1,2
;   temperatureSetpointTemperatures,0,235,220,110,105
;   temperatureStabilizeAtStartup,0,0,0
;   temperatureHeatedBed,0,0,1
;   temperatureRelayBetweenLayers,0,0,0
;   temperatureRelayBetweenLoops,0,0,0
;   fanLayers,1
;   fanSpeeds,0
;   blipFanToFullPower,0
;   adjustSpeedForCooling,1
;   minSpeedLayerTime,1
;   minCoolingSpeedSlowdown,50
;   increaseFanForCooling,0
;   minFanLayerTime,45
;   maxCoolingFanSpeed,100
;   increaseFanForBridging,1
;   bridgingFanSpeed,100
;   use5D,1
;   relativeEdistances,1
;   allowEaxisZeroing,0
;   independentExtruderAxes,1
;   includeM10123,0
;   stickySupport,1
;   applyToolheadOffsets,0
;   gcodeXoffset,0
;   gcodeYoffset,0
;   gcodeZoffset,0
;   overrideMachineDefinition,1
;   machineTypeOverride,0
;   strokeXoverride,220
;   strokeYoverride,140
;   strokeZoverride,150
;   originOffsetXoverride,110
;   originOffsetYoverride,70
;   originOffsetZoverride,0
;   homeXdirOverride,1
;   homeYdirOverride,1
;   homeZdirOverride,-1
;   flipXoverride,1
;   flipYoverride,-1
;   flipZoverride,1
;   toolheadOffsets,0,0|34,0|0,0|0,0|0,0|0,0
;   overrideFirmwareConfiguration,1
;   firmwareTypeOverride,MakerBot/Sailfish Firmware
;   GPXconfigOverride,r1d
;   baudRateOverride,115200
;   overridePrinterModels,0
;   printerModelsOverride
;   startingGcode,; **** Duplicator 4 dual start.gcode ****,M73 P0 ; enable build progress,G162 X Y F3000 ; home XY maximum,G161 Z F1200 ; home Z minimum,G92 Z-5 ; set Z to -5,G1 Z0 ; move Z to 0,G161 Z F100 ; home Z slowly,M132 X Y Z A B ; recall home offsets,M135 T0 ; load right extruder offsets,G1 X-120 Y-70 Z30 F9000 ; move to wait position off table,G130 X20 Y20 Z20 A20 B20 ; lower stepper Vrefs while heating,M126 S[fan_speed_pwm],M140 S[bed0_temperature] T0,M134 T0 ; stabilize bed temperature,M104 S[extruder1_temperature] T1,M133 T1 ; stabilize extruder temperature,G130 X127 Y127 Z40 A127 B127 ; default stepper Vrefs,G92 A0 B0 ; zero extruders,M135 T1 ; load left extruder offsets,G1 Z0.4 ; position nozzle,G1 E25 F300 ; purge nozzle,G1 X-115 Y-65 Z0.15 F1200 ; slow wipe,G1 X-110 Y-60 Z0.5 F1200 ; lift,G92 A0 B0 ; zero extruders,M73 P1 ;@body (notify GPX body has started),; **** end of start.gcode ****
;   layerChangeGcode,
;   retractionGcode,
;   toolChangeGcode,
;   endingGcode,; **** Duplicator 4 dual end.gcode ****,M73 P100 ; end build progress,G1 Z150 F1000 ; send Z axis to bottom of machine,M140 S0 T0 ; cool down HBP,M104 S0 T0 ; cool down right extruder,M104 S0 T1 ; cool down left extruder,M127 ; stop blower fan,G162 X Y F3000 ; home XY maximum,M18 ; disable stepper,M72 P1 ; play Ta-Da song,; **** end of end.gcode ****
;   exportFileFormat,x3g
;   celebration,0
;   celebrationSong,Random Song
;   postProcessing,
;   defaultSpeed,1000
;   outlineUnderspeed,0.5
;   solidInfillUnderspeed,0.8
;   supportUnderspeed,0.8
;   rapidXYspeed,2200
;   rapidZspeed,1200
;   minBridgingArea,50
;   bridgingExtraInflation,0
;   bridgingExtrusionMultiplier,1
;   bridgingSpeedMultiplier,0.8
;   useFixedBridgingAngle,0
;   fixedBridgingAngle,0
;   applyBridgingToPerimeters,0
;   filamentDiameters,1.75|1.75|1.75|1.75|1.75|1.75
;   filamentPricesPerKg,46|46|46|46|46|46
;   filamentDensities,1.25|1.25|1.25|1.25|1.25|1.25
;   useMinPrintHeight,0
;   minPrintHeight,0
;   useMaxPrintHeight,0
;   maxPrintHeight,0
;   useDiaphragm,0
;   diaphragmLayerInterval,20
;   robustSlicing,1
;   mergeAllIntoSolid,0
;   onlyRetractWhenCrossingOutline,1
;   retractBetweenLayers,1
;   useRetractionMinTravel,0
;   retractionMinTravel,3
;   retractWhileWiping,0
;   onlyWipeOutlines,1
;   avoidCrossingOutline,1
;   maxMovementDetourFactor,3
;   toolChangeRetractionDistance,12
;   toolChangeExtraRestartDistance,-0.5
;   toolChangeRetractionSpeed,600
;   externalThinWallType,0
;   internalThinWallType,2
;   thinWallAllowedOverlapPercentage,10
;   singleExtrusionMinLength,1
;   singleExtrusionMinPrintingWidthPercentage,50
;   singleExtrusionMaxPrintingWidthPercentage,200
;   singleExtrusionEndpointExtension,0.2
;   horizontalSizeCompensation,0
G90
M83
; **** Duplicator 4 dual start.gcode ****
M73 P0 ; enable build progress
G162 X Y F3000 ; home XY maximum
G161 Z F1200 ; home Z minimum
G92 Z-5 ; set Z to -5
G1 Z0 ; move Z to 0
G161 Z F100 ; home Z slowly
M132 X Y Z A B ; recall home offsets
M135 T0 ; load right extruder offsets
G1 X-120 Y-70 Z30 F9000 ; move to wait position off table
G130 X20 Y20 Z20 A20 B20 ; lower stepper Vrefs while heating
M127
M140 S110 T0
M134 T0 ; stabilize bed temperature
M104 S235 T1
M133 T1 ; stabilize extruder temperature
G130 X127 Y127 Z40 A127 B127 ; default stepper Vrefs
G92 A0 B0 ; zero extruders
M135 T1 ; load left extruder offsets
G1 Z0.4 ; position nozzle
G1 E25 F300 ; purge nozzle
G1 X-115 Y-65 Z0.15 F1200 ; slow wipe
G1 X-110 Y-60 Z0.5 F1200 ; lift
G92 A0 B0 ; zero extruders
M73 P1 ;@body (notify GPX body has started)
; **** end of start.gcode ****
G1 E-1.0000 F1200
G1 Z0.090 F1200
; process Oled
; layer 1, Z = 0.090
M135 T1
; tool H0.100 W0.400
; skirt
G1 X15.447 Y14.432 F2200
G1 E1.0000 F360
G1 X17.959 Y11.920 E0.0591 F500
G1 X18.179 Y11.829 E0.0040
G1 X55.932 Y11.829 E0.6278
G1 X56.152 Y11.920 E0.0040
G1 X58.664 Y14.432 E0.0591
G1 X58.755 Y14.652 E0.0040
G1 X58.755 Y52.605 E0.6312
G1 X58.664 Y52.825 E0.0040
G1 X56.152 Y55.337 E0.0591
G1 X55.932 Y55.429 E0.0040
G1 X18.179 Y55.429 E0.6278
G1 X17.959 Y55.337 E0.0040
G1 X15.447 Y52.825 E0.0591
G1 X15.355 Y52.605 E0.0040
G1 X15.355 Y14.652 E0.6312
G1 X15.447 Y14.432 E0.0040
G1 X15.786 Y14.658 F2200
G1 X18.185 Y12.259 E0.0564 F500
G1 X18.259 Y12.229 E0.0013
G1 X55.852 Y12.229 E0.6252
G1 X55.926 Y12.259 E0.0013
G1 X58.325 Y14.658 E0.0564
G1 X58.355 Y14.732 E0.0013
G1 X58.355 Y52.525 E0.6285
G1 X58.325 Y52.599 E0.0013
G1 X55.926 Y54.998 E0.0564
G1 X55.852 Y55.029 E0.0013
G1 X18.259 Y55.029 E0.6252
G1 X18.185 Y54.998 E0.0013
G1 X15.786 Y52.599 E0.0564
G1 X15.755 Y52.525 E0.0013
G1 X15.755 Y14.732 E0.6285
G1 X15.786 Y14.658 E0.0013
G1 E-1.0000 F1200
; inner perimeter
G1 X20.151 Y16.625 F2200
G1 X38.715 Y16.625 F2200
G1 X52.755 Y17.829 F2200
G1 E1.0000 F1200
G1 X52.755 Y49.429 E0.5255 F375
G1 X21.355 Y49.429 E0.5222
G1 X21.355 Y17.829 E0.5255
G1 X52.755 Y17.829 E0.5222
G1 X53.155 Y49.829 F2200
G1 X20.955 Y49.829 E0.5355 F375
G1 X20.955 Y17.429 E0.5388
G1 X53.155 Y17.429 E0.5355
G1 X53.155 Y49.829 E0.5388
G1 X53.555 Y50.229 F2200
G1 X20.555 Y50.229 E0.5488 F375
G1 X20.555 Y17.029 E0.5521
G1 X53.555 Y17.029 E0.5488
G1 X53.555 Y50.229 E0.5521
; outer perimeter
G1 X46.195 Y42.825 F2200
G1 X50.751 Y42.825 F2200
G1 X50.751 Y27.433 F2200
G1 X30.895 Y27.433 F2200
G1 X20.155 Y16.629 F2200
G1 X53.955 Y16.629 E0.5621 F250
G1 X53.955 Y50.629 E0.5654
G1 X20.155 Y50.629 E0.5621
G1 X20.155 Y16.629 E0.5654
; inner perimeter
G1 X22.155 Y26.229 F2200
G1 X22.155 Y44.029 E0.2960 F375
G1 X51.955 Y44.029 E0.4956
G1 X51.955 Y26.229 E0.2960
G1 X22.155 Y26.229 E0.4956
G1 X22.555 Y43.629 F2200
G1 X51.555 Y43.629 E0.4823 F375
G1 X51.555 Y26.629 E0.2827
G1 X22.555 Y26.629 E0.4823
G1 X22.555 Y43.629 E0.2827
G1 X23.941 Y42.825 F2200
G1 X23.359 Y42.825 F2200
G1 X23.359 Y27.433 F2200
G1 X50.459 Y27.433 F2200
G1 X51.155 Y27.029 F2200
G1 X22.955 Y27.029 E0.4690 F375
G1 X22.955 Y43.229 E0.2694
G1 X51.155 Y43.229 E0.4690
G1 X51.155 Y27.029 E0.2694
; outer perimeter
G1 X50.755 Y27.429 F2200
G1 X23.355 Y27.429 E0.4557 F250
G1 X23.355 Y42.829 E0.2561
G1 X50.755 Y42.829 E0.4557
G1 X50.755 Y27.429 E0.2561
; solid layer
G1 X52.235 Y25.949 F2200
G1 X21.875 Y25.949 E0.5049 F400
G1 X21.875 Y44.309 E0.3053
G1 X52.235 Y44.309 E0.5049
G1 X52.235 Y25.949 E0.3053
G1 X52.075 Y25.549 F2200
G1 X22.035 Y25.549 E0.4996 F400
G1 X22.035 Y18.509 E0.1171
G1 X52.075 Y18.509 E0.4996
G1 X52.075 Y25.549 E0.1171
G1 X51.675 Y25.149 F2200
G1 X22.435 Y25.149 E0.4863 F400
G1 X22.435 Y18.909 E0.1038
G1 X51.675 Y18.909 E0.4863
G1 X51.675 Y25.149 E0.1038
G1 X51.275 Y24.749 F2200
G1 X22.835 Y24.749 E0.4730 F400
G1 X22.835 Y19.309 E0.0905
G1 X51.275 Y19.309 E0.4730
G1 X51.275 Y24.749 E0.0905
G1 X50.875 Y24.349 F2200
G1 X23.235 Y24.349 E0.4597 F400
G1 X23.235 Y19.709 E0.0772
G1 X50.875 Y19.709 E0.4597
G1 X50.875 Y24.349 E0.0772
G1 X50.475 Y23.949 F2200
G1 X23.635 Y23.949 E0.4464 F400
G1 X23.635 Y20.109 E0.0639
G1 X50.475 Y20.109 E0.4464
G1 X50.475 Y23.949 E0.0639
G1 X50.075 Y23.549 F2200
G1 X24.035 Y23.549 E0.4330 F400
G1 X24.035 Y20.509 E0.0506
G1 X50.075 Y20.509 E0.4330
G1 X50.075 Y23.549 E0.0506
G1 X49.675 Y23.149 F2200
G1 X24.435 Y23.149 E0.4197 F400
G1 X24.435 Y20.909 E0.0373
G1 X49.675 Y20.909 E0.4197
G1 X49.675 Y23.149 E0.0373
G1 X49.275 Y22.749 F2200
G1 X24.835 Y22.749 E0.4064 F400
G1 X24.835 Y21.309 E0.0239
G1 X49.275 Y21.309 E0.4064
G1 X49.275 Y22.749 E0.0239
G1 X48.875 Y22.349 F2200
G1 X25.235 Y22.349 E0.3931 F400
G1 X25.235 Y21.709 E0.0106
G1 X48.875 Y21.709 E0.3931
G1 X48.875 Y22.349 E0.0106
G1 X52.475 Y18.109 F2200
G1 X52.475 Y49.149 E0.5162 F400
G1 X21.635 Y49.149 E0.5129
G1 X21.635 Y18.109 E0.5162
G1 X52.475 Y18.109 E0.5129
G1 X52.075 Y44.709 F2200
G1 X52.075 Y48.749 E0.0672 F400
G1 X22.035 Y48.749 E0.4996
G1 X22.035 Y44.709 E0.0672
G1 X52.075 Y44.709 E0.4996
G1 X51.675 Y45.109 F2200
G1 X51.675 Y48.349 E0.0539 F400
G1 X22.435 Y48.349 E0.4863
G1 X22.435 Y45.109 E0.0539
G1 X51.675 Y45.109 E0.4863
G1 X51.275 Y45.509 F2200
G1 X51.275 Y47.949 E0.0406 F400
G1 X22.835 Y47.949 E0.4730
G1 X22.835 Y45.509 E0.0406
G1 X51.275 Y45.509 E0.4730
G1 X50.875 Y45.909 F2200
G1 X50.875 Y47.549 E0.0273 F400
G1 X23.235 Y47.549 E0.4597
G1 X23.235 Y45.909 E0.0273
G1 X50.875 Y45.909 E0.4597
G1 X50.475 Y46.309 F2200
G1 X50.475 Y47.149 E0.0140 F400
G1 X23.635 Y47.149 E0.4464
G1 X23.635 Y46.309 E0.0140
G1 X50.475 Y46.309 E0.4464
G1 X50.075 Y46.709 F2200
G1 X50.075 Y46.749 E0.0007 F400
G1 X24.035 Y46.749 E0.4330
G1 X24.035 Y46.709 E0.0007
G1 X50.075 Y46.709 E0.4330
G1 E-1.0000 F1200
; layer 2, Z = 0.190
M104 S220 T1
M140 S105 T0
; skirt
G1 X58.755 Y52.605 F2200
G1 Z0.190 F1200
G1 E1.0000 F1200
G1 X58.664 Y52.825 E0.0040 F1000
G1 X56.152 Y55.337 E0.0591
G1 X55.932 Y55.429 E0.0040
G1 X18.179 Y55.429 E0.6278
G1 X17.959 Y55.337 E0.0040
G1 X15.447 Y52.825 E0.0591
G1 X15.355 Y52.605 E0.0040
G1 X15.355 Y14.652 E0.6312
G1 X15.447 Y14.432 E0.0040
G1 X17.959 Y11.920 E0.0591
G1 X18.179 Y11.829 E0.0040
G1 X55.932 Y11.829 E0.6278
G1 X56.152 Y11.920 E0.0040
G1 X58.664 Y14.432 E0.0591
G1 X58.755 Y14.652 E0.0040
G1 X58.755 Y52.605 E0.6312
G1 X58.355 Y52.525 F2200
G1 X58.325 Y52.599 E0.0013 F1000
G1 X55.926 Y54.998 E0.0564
G1 X55.852 Y55.029 E0.0013
G1 X18.259 Y55.029 E0.6252
G1 X18.185 Y54.998 E0.0013
G1 X15.786 Y52.599 E0.0564
G1 X15.755 Y52.525 E0.0013
G1 X15.755 Y14.732 E0.6285
G1 X15.786 Y14.658 E0.0013
G1 X18.185 Y12.259 E0.0564
G1 X18.259 Y12.229 E0.0013
G1 X55.852 Y12.229 E0.6252
G1 X55.926 Y12.259 E0.0013
G1 X58.325 Y14.658 E0.0564
G1 X58.355 Y14.732 E0.0013
G1 X58.355 Y52.525 E0.6285
G1 E-1.0000 F1200
; inner perimeter
G1 X53.959 Y50.633 F2200
G1 X53.959 Y48.403 F2200
G1 X48.011 Y42.825 F2200
G1 X50.751 Y42.825 F2200
G1 X50.751 Y27.433 F2200
G1 X31.597 Y27.433 F2200
G1 X21.355 Y17.829 F2200
G1 E1.0000 F1200
G1 X52.755 Y17.829 E0.5222 F750
G1 X52.755 Y49.429 E0.5255
G1 X21.355 Y49.429 E0.5222
G1 X21.355 Y17.829 E0.5255
G1 X30.899 Y27.433 F2200
G1 X23.359 Y27.433 F2200
G1 X23.359 Y42.825 F2200
G1 X46.195 Y42.825 F2200
G1 X53.155 Y49.829 F2200
G1 X20.955 Y49.829 E0.5355 F750
G1 X20.955 Y17.429 E0.5388
G1 X53.155 Y17.429 E0.5355
G1 X53.155 Y49.829 E0.5388
G1 X53.555 Y50.229 F2200
G1 X20.555 Y50.229 E0.5488 F750
G1 X20.555 Y17.029 E0.5521
G1 X53.555 Y17.029 E0.5488
G1 X53.555 Y50.229 E0.5521
; outer perimeter
G1 X20.155 Y50.629 F2200
G1 X20.155 Y16.629 E0.5654 F500
G1 X53.955 Y16.629 E0.5621
G1 X53.955 Y50.629 E0.5654
G1 X20.155 Y50.629 E0.5621
; inner perimeter
G1 X51.955 Y44.029 F2200
G1 X51.955 Y26.229 E0.2960 F750
G1 X22.155 Y26.229 E0.4956
G1 X22.155 Y44.029 E0.2960
G1 X51.955 Y44.029 E0.4956
G1 X49.921 Y42.825 F2200
G1 X50.751 Y42.825 F2200
G1 X50.751 Y27.433 F2200
G1 X23.914 Y27.433 F2200
G1 X22.555 Y26.629 F2200
G1 X22.555 Y43.629 E0.2827 F750
G1 X51.555 Y43.629 E0.4823
G1 X51.555 Y26.629 E0.2827
G1 X22.555 Y26.629 E0.4823
G1 X51.155 Y27.029 F2200
G1 X22.955 Y27.029 E0.4690 F750
G1 X22.955 Y43.229 E0.2694
G1 X51.155 Y43.229 E0.4690
G1 X51.155 Y27.029 E0.2694
; outer perimeter
G1 X50.755 Y42.829 F2200
G1 X50.755 Y27.429 E0.2561 F500
G1 X23.355 Y27.429 E0.4557
G1 X23.355 Y42.829 E0.2561
G1 X50.755 Y42.829 E0.4557
; solid layer
G1 X52.235 Y44.309 F2200
G1 X52.235 Y25.949 E0.3053 F800
G1 X21.875 Y25.949 E0.5049
G1 X21.875 Y44.309 E0.3053
G1 X52.235 Y44.309 E0.5049
G1 X52.075 Y44.709 F2200
G1 X52.075 Y48.749 E0.0672 F800
G1 X22.035 Y48.749 E0.4996
G1 X22.035 Y44.709 E0.0672
G1 X52.075 Y44.709 E0.4996
G1 X51.675 Y45.109 F2200
G1 X51.675 Y48.349 E0.0539 F800
G1 X22.435 Y48.349 E0.4863
G1 X22.435 Y45.109 E0.0539
G1 X51.675 Y45.109 E0.4863
G1 X51.275 Y45.509 F2200
G1 X51.275 Y47.949 E0.0406 F800
G1 X22.835 Y47.949 E0.4730
G1 X22.835 Y45.509 E0.0406
G1 X51.275 Y45.509 E0.4730
G1 X50.875 Y45.909 F2200
G1 X50.875 Y47.549 E0.0273 F800
G1 X23.235 Y47.549 E0.4597
G1 X23.235 Y45.909 E0.0273
G1 X50.875 Y45.909 E0.4597
G1 X50.475 Y46.309 F2200
G1 X50.475 Y47.149 E0.0140 F800
G1 X23.635 Y47.149 E0.4464
G1 X23.635 Y46.309 E0.0140
G1 X50.475 Y46.309 E0.4464
G1 X50.075 Y46.709 F2200
G1 X50.075 Y46.749 E0.0007 F800
G1 X24.035 Y46.749 E0.4330
G1 X24.035 Y46.709 E0.0007
G1 X50.075 Y46.709 E0.4330
