; G-Code generated by Simplify3D(R) Version 4.0.0
; Jun 2, 2018 at 2:59:14 PM
; Settings Summary
;   processName,Aquamonitor Insert
;   applyToModels,prototype
;   profileName,Wanhao Duplicator 4/4X Dual (modified)
;   profileVersion,2015-05-01 08:00:00
;   baseProfile,
;   printMaterial,ABS
;   printQuality,High
;   printExtruders,Left Extruder Only
;   extruderName,Right Extruder,Left Extruder
;   extruderToolheadNumber,0,1
;   extruderDiameter,0.4,0.4
;   extruderAutoWidth,0,1
;   extruderWidth,0.4,0.48
;   extrusionMultiplier,1,1
;   extruderUseRetract,1,1
;   extruderRetractionDistance,1,1
;   extruderExtraRestartDistance,0,0
;   extruderRetractionZLift,0,0
;   extruderRetractionSpeed,1200,1200
;   extruderUseCoasting,0,0
;   extruderCoastingDistance,0.2,0.2
;   extruderUseWipe,0,0
;   extruderWipeDistance,5,5
;   primaryExtruder,1
;   layerHeight,0.1
;   topSolidLayers,4
;   bottomSolidLayers,4
;   perimeterOutlines,2
;   printPerimetersInsideOut,1
;   startPointOption,1
;   startPointOriginX,0
;   startPointOriginY,0
;   sequentialIslands,0
;   spiralVaseMode,0
;   firstLayerHeightPercentage,90
;   firstLayerWidthPercentage,100
;   firstLayerUnderspeed,0.5
;   useRaft,0
;   raftExtruder,1
;   raftTopLayers,3
;   raftBaseLayers,2
;   raftOffset,3
;   raftSeparationDistance,0.14
;   raftTopInfill,100
;   aboveRaftSpeedMultiplier,0.3
;   useSkirt,1
;   skirtExtruder,1
;   skirtLayers,2
;   skirtOutlines,2
;   skirtOffset,4
;   usePrimePillar,0
;   primePillarExtruder,999
;   primePillarWidth,12
;   primePillarLocation,7
;   primePillarSpeedMultiplier,1
;   useOozeShield,0
;   oozeShieldExtruder,999
;   oozeShieldOffset,2
;   oozeShieldOutlines,1
;   oozeShieldSidewallShape,1
;   oozeShieldSidewallAngle,30
;   oozeShieldSpeedMultiplier,1
;   infillExtruder,1
;   internalInfillPattern,Rectilinear
;   externalInfillPattern,Rectilinear
;   infillPercentage,30
;   outlineOverlapPercentage,80
;   infillExtrusionWidthPercentage,100
;   minInfillLength,2
;   infillLayerInterval,1
;   internalInfillAngles,45,-45
;   overlapInternalInfillAngles,0
;   externalInfillAngles,45,-45
;   generateSupport,0
;   supportExtruder,1
;   supportInfillPercentage,40
;   supportExtraInflation,0
;   supportBaseLayers,0
;   denseSupportExtruder,1
;   denseSupportLayers,0
;   denseSupportInfillPercentage,70
;   supportLayerInterval,1
;   supportHorizontalPartOffset,0.3
;   supportUpperSeparationLayers,1
;   supportLowerSeparationLayers,1
;   supportType,0
;   supportGridSpacing,4
;   maxOverhangAngle,45
;   supportAngles,0
;   temperatureName,Right Extruder,Left Extruder,Heated Build Platform
;   temperatureNumber,0,1,0
;   temperatureSetpointCount,1,1,1
;   temperatureSetpointLayers,1,1,1
;   temperatureSetpointTemperatures,0,225,105
;   temperatureStabilizeAtStartup,0,0,0
;   temperatureHeatedBed,0,0,1
;   temperatureRelayBetweenLayers,0,0,0
;   temperatureRelayBetweenLoops,0,0,0
;   fanLayers,1
;   fanSpeeds,0
;   blipFanToFullPower,0
;   adjustSpeedForCooling,1
;   minSpeedLayerTime,1
;   minCoolingSpeedSlowdown,30
;   increaseFanForCooling,0
;   minFanLayerTime,45
;   maxCoolingFanSpeed,100
;   increaseFanForBridging,1
;   bridgingFanSpeed,100
;   use5D,1
;   relativeEdistances,1
;   allowEaxisZeroing,0
;   independentExtruderAxes,1
;   includeM10123,0
;   stickySupport,1
;   applyToolheadOffsets,0
;   gcodeXoffset,0
;   gcodeYoffset,0
;   gcodeZoffset,0
;   overrideMachineDefinition,1
;   machineTypeOverride,0
;   strokeXoverride,220
;   strokeYoverride,140
;   strokeZoverride,150
;   originOffsetXoverride,110
;   originOffsetYoverride,70
;   originOffsetZoverride,0
;   homeXdirOverride,1
;   homeYdirOverride,1
;   homeZdirOverride,-1
;   flipXoverride,1
;   flipYoverride,-1
;   flipZoverride,1
;   toolheadOffsets,0,0|34,0|0,0|0,0|0,0|0,0
;   overrideFirmwareConfiguration,1
;   firmwareTypeOverride,MakerBot/Sailfish Firmware
;   GPXconfigOverride,r1d
;   baudRateOverride,115200
;   overridePrinterModels,0
;   printerModelsOverride
;   startingGcode,; **** Duplicator 4 dual start.gcode ****,M73 P0 ; enable build progress,G162 X Y F3000 ; home XY maximum,G161 Z F1200 ; home Z minimum,G92 Z-5 ; set Z to -5,G1 Z0 ; move Z to 0,G161 Z F100 ; home Z slowly,M132 X Y Z A B ; recall home offsets,M135 T0 ; load right extruder offsets,G1 X-120 Y-70 Z30 F9000 ; move to wait position off table,G130 X20 Y20 Z20 A20 B20 ; lower stepper Vrefs while heating,M126 S[fan_speed_pwm],M140 S[bed0_temperature] T0,M134 T0 ; stabilize bed temperature,M104 S[extruder1_temperature] T1,M133 T1 ; stabilize extruder temperature,G130 X127 Y127 Z40 A127 B127 ; default stepper Vrefs,G92 A0 B0 ; zero extruders,M135 T1 ; load left extruder offsets,G1 Z0.4 ; position nozzle,G1 E25 F300 ; purge nozzle,G1 X-115 Y-65 Z0.15 F1200 ; slow wipe,G1 X-110 Y-60 Z0.5 F1200 ; lift,G92 A0 B0 ; zero extruders,M73 P1 ;@body (notify GPX body has started),; **** end of start.gcode ****
;   layerChangeGcode,
;   retractionGcode,
;   toolChangeGcode,
;   endingGcode,; **** Duplicator 4 dual end.gcode ****,M73 P100 ; end build progress,G1 Z150 F1000 ; send Z axis to bottom of machine,M140 S0 T0 ; cool down HBP,M104 S0 T0 ; cool down right extruder,M104 S0 T1 ; cool down left extruder,M127 ; stop blower fan,G162 X Y F3000 ; home XY maximum,M18 ; disable stepper,M72 P1 ; play Ta-Da song,; **** end of end.gcode ****
;   exportFileFormat,x3g
;   celebration,0
;   celebrationSong,Random Song
;   postProcessing,
;   defaultSpeed,2000
;   outlineUnderspeed,0.6
;   solidInfillUnderspeed,0.8
;   supportUnderspeed,0.8
;   rapidXYspeed,4000
;   rapidZspeed,1200
;   minBridgingArea,50
;   bridgingExtraInflation,0
;   bridgingExtrusionMultiplier,1
;   bridgingSpeedMultiplier,0.8
;   useFixedBridgingAngle,0
;   fixedBridgingAngle,0
;   applyBridgingToPerimeters,0
;   filamentDiameters,1.75|1.75|1.75|1.75|1.75|1.75
;   filamentPricesPerKg,46|46|46|46|46|46
;   filamentDensities,1.25|1.25|1.25|1.25|1.25|1.25
;   useMinPrintHeight,0
;   minPrintHeight,0
;   useMaxPrintHeight,0
;   maxPrintHeight,4
;   useDiaphragm,0
;   diaphragmLayerInterval,20
;   robustSlicing,1
;   mergeAllIntoSolid,0
;   onlyRetractWhenCrossingOutline,1
;   retractBetweenLayers,1
;   useRetractionMinTravel,0
;   retractionMinTravel,3
;   retractWhileWiping,0
;   onlyWipeOutlines,1
;   avoidCrossingOutline,1
;   maxMovementDetourFactor,3
;   toolChangeRetractionDistance,12
;   toolChangeExtraRestartDistance,-0.5
;   toolChangeRetractionSpeed,600
;   externalThinWallType,0
;   internalThinWallType,2
;   thinWallAllowedOverlapPercentage,10
;   singleExtrusionMinLength,0.6
;   singleExtrusionMinPrintingWidthPercentage,50
;   singleExtrusionMaxPrintingWidthPercentage,200
;   singleExtrusionEndpointExtension,0.2
;   horizontalSizeCompensation,0
G90
M83
; **** Duplicator 4 dual start.gcode ****
M73 P0 ; enable build progress
G162 X Y F3000 ; home XY maximum
G161 Z F1200 ; home Z minimum
G92 Z-5 ; set Z to -5
G1 Z0 ; move Z to 0
G161 Z F100 ; home Z slowly
M132 X Y Z A B ; recall home offsets
M135 T0 ; load right extruder offsets
G1 X-120 Y-70 Z30 F9000 ; move to wait position off table
G130 X20 Y20 Z20 A20 B20 ; lower stepper Vrefs while heating
M127
M140 S105 T0
M134 T0 ; stabilize bed temperature
M104 S225 T1
M133 T1 ; stabilize extruder temperature
G130 X127 Y127 Z40 A127 B127 ; default stepper Vrefs
G92 A0 B0 ; zero extruders
M135 T1 ; load left extruder offsets
G1 Z0.4 ; position nozzle
G1 E25 F300 ; purge nozzle
G1 X-115 Y-65 Z0.15 F1200 ; slow wipe
G1 X-110 Y-60 Z0.5 F1200 ; lift
G92 A0 B0 ; zero extruders
M73 P1 ;@body (notify GPX body has started)
; **** end of start.gcode ****
G1 E-1.0000 F1200
G1 Z0.090 F1200
; process Aquamonitor Insert
; layer 1, Z = 0.090
M135 T1
; tool H0.100 W0.480
; skirt
G1 X27.220 Y-24.300 F4000
G1 E1.0000 F360
G1 X27.220 Y24.300 E0.9699 F1000
G1 X27.110 Y24.565 E0.0057
G1 X24.565 Y27.110 E0.0718
G1 X24.300 Y27.220 E0.0057
G1 X-24.300 Y27.220 E0.9699
G1 X-24.565 Y27.110 E0.0057
G1 X-27.110 Y24.565 E0.0718
G1 X-27.220 Y24.300 E0.0057
G1 X-27.220 Y-24.300 E0.9699
G1 X-27.110 Y-24.565 E0.0057
G1 X-24.565 Y-27.110 E0.0718
G1 X-24.300 Y-27.220 E0.0057
G1 X24.300 Y-27.220 E0.9699
G1 X24.565 Y-27.110 E0.0057
G1 X27.110 Y-24.565 E0.0718
G1 X27.220 Y-24.300 E0.0057
G1 X26.740 Y-24.205 F4000
G1 X26.740 Y24.205 E0.9661 F1000
G1 X26.703 Y24.293 E0.0019
G1 X24.293 Y26.703 E0.0680
G1 X24.205 Y26.740 E0.0019
G1 X-24.205 Y26.740 E0.9661
G1 X-24.293 Y26.703 E0.0019
G1 X-26.703 Y24.293 E0.0680
G1 X-26.740 Y24.205 E0.0019
G1 X-26.740 Y-24.205 E0.9661
G1 X-26.703 Y-24.293 E0.0019
G1 X-24.293 Y-26.703 E0.0680
G1 X-24.205 Y-26.740 E0.0019
G1 X24.205 Y-26.740 E0.9661
G1 X24.293 Y-26.703 E0.0019
G1 X26.703 Y-24.293 E0.0680
G1 X26.740 Y-24.205 E0.0019
G1 E-1.0000 F1200
; inner perimeter
G1 X22.265 Y-22.265 F4000
G1 X22.265 Y-22.017 F4000
G1 X21.780 Y-21.780 F4000
G1 E1.0000 F1200
G1 X21.780 Y21.780 E0.8693 F800
G1 X-21.780 Y21.780 E0.8693
G1 X-21.780 Y-21.780 E0.8693
G1 X21.780 Y-21.780 E0.8693
; outer perimeter
G1 X22.260 Y22.260 F4000
G1 X-22.260 Y22.260 E0.8884 F600
G1 X-22.260 Y-22.260 E0.8884
G1 X22.260 Y-22.260 E0.8884
G1 X22.260 Y22.260 E0.8884
; inner perimeter
G1 X10.052 Y14.235 F4000
G1 X13.735 Y14.235 F4000
G1 X13.735 Y-1.235 F4000
G1 X-13.482 Y-1.235 F4000
G1 X-14.220 Y-1.720 F4000
G1 X-14.220 Y14.720 E0.3281 F800
G1 X14.220 Y14.720 E0.5676
G1 X14.220 Y-1.720 E0.3281
G1 X-14.220 Y-1.720 E0.5676
; outer perimeter
G1 X-13.371 Y-1.235 F4000
G1 X-13.735 Y-1.235 F4000
G1 X-13.735 Y14.235 F4000
G1 X13.732 Y14.235 F4000
G1 X13.740 Y14.240 F4000
G1 X13.740 Y-1.240 E0.3089 F600
G1 X-13.740 Y-1.240 E0.5484
G1 X-13.740 Y14.240 E0.3089
G1 X13.740 Y14.240 E0.5484
; solid layer
G1 X14.316 Y-1.297 F4000
G1 X21.684 Y6.071 E0.2079 F800
G1 X21.684 Y6.750 E0.0135
G1 X14.316 Y-0.618 E0.2079
G1 X14.316 Y0.061 E0.0135
G1 X21.684 Y7.429 E0.2079
G1 X21.684 Y8.108 E0.0135
G1 X14.316 Y0.740 E0.2079
G1 X14.316 Y1.418 E0.0135
G1 X21.684 Y8.786 E0.2079
G1 X21.684 Y9.465 E0.0135
G1 X14.316 Y2.097 E0.2079
G1 X14.316 Y2.776 E0.0135
G1 X21.684 Y10.144 E0.2079
G1 X21.684 Y10.823 E0.0135
G1 X14.316 Y3.455 E0.2079
G1 X14.316 Y4.134 E0.0135
G1 X21.684 Y11.502 E0.2079
G1 X21.684 Y12.180 E0.0135
G1 X14.316 Y4.812 E0.2079
G1 X14.316 Y5.491 E0.0135
G1 X21.684 Y12.859 E0.2079
G1 X21.684 Y13.538 E0.0135
G1 X14.316 Y6.170 E0.2079
G1 X14.316 Y6.849 E0.0135
G1 X21.684 Y14.217 E0.2079
G1 X21.684 Y14.896 E0.0135
G1 X14.316 Y7.528 E0.2079
G1 X14.316 Y8.207 E0.0135
G1 X21.684 Y15.575 E0.2079
G1 X21.684 Y16.253 E0.0135
G1 X14.316 Y8.885 E0.2079
G1 X14.316 Y9.564 E0.0135
G1 X21.684 Y16.932 E0.2079
G1 X21.684 Y17.611 E0.0135
G1 X14.316 Y10.243 E0.2079
G1 X14.316 Y10.922 E0.0135
G1 X21.684 Y18.290 E0.2079
G1 X21.684 Y18.969 E0.0135
G1 X14.316 Y11.601 E0.2079
G1 X14.316 Y12.280 E0.0135
G1 X21.684 Y19.648 E0.2079
G1 X21.684 Y20.326 E0.0135
G1 X14.316 Y12.958 E0.2079
G1 X14.316 Y13.637 E0.0135
G1 X21.684 Y21.005 E0.2079
G1 X21.684 Y21.684 E0.0135
G1 X14.316 Y14.316 E0.2079
G1 X14.316 Y14.816 E0.0100
G1 X14.137 Y14.816 E0.0036
G1 X21.005 Y21.684 E0.1938
G1 X20.326 Y21.684 E0.0135
G1 X13.458 Y14.816 E0.1938
G1 X12.780 Y14.816 E0.0135
G1 X19.648 Y21.684 E0.1938
G1 X18.969 Y21.684 E0.0135
G1 X12.101 Y14.816 E0.1938
G1 X11.422 Y14.816 E0.0135
G1 X18.290 Y21.684 E0.1938
G1 X17.611 Y21.684 E0.0135
G1 X10.743 Y14.816 E0.1938
G1 X10.064 Y14.816 E0.0135
G1 X16.932 Y21.684 E0.1938
G1 X16.253 Y21.684 E0.0135
G1 X9.385 Y14.816 E0.1938
G1 X8.707 Y14.816 E0.0135
G1 X15.575 Y21.684 E0.1938
G1 X14.896 Y21.684 E0.0135
G1 X8.028 Y14.816 E0.1938
G1 X7.349 Y14.816 E0.0135
G1 X14.217 Y21.684 E0.1938
G1 X13.538 Y21.684 E0.0135
G1 X6.670 Y14.816 E0.1938
G1 X5.991 Y14.816 E0.0135
G1 X12.859 Y21.684 E0.1938
G1 X12.180 Y21.684 E0.0135
G1 X5.312 Y14.816 E0.1938
G1 X4.634 Y14.816 E0.0135
G1 X11.502 Y21.684 E0.1938
G1 X10.823 Y21.684 E0.0135
G1 X3.955 Y14.816 E0.1938
G1 X3.276 Y14.816 E0.0135
G1 X10.144 Y21.684 E0.1938
G1 X9.465 Y21.684 E0.0135
G1 X2.597 Y14.816 E0.1938
G1 X1.918 Y14.816 E0.0135
G1 X8.786 Y21.684 E0.1938
G1 X8.108 Y21.684 E0.0135
G1 X1.240 Y14.816 E0.1938
G1 X0.561 Y14.816 E0.0135
G1 X7.429 Y21.684 E0.1938
G1 X6.750 Y21.684 E0.0135
G1 X-0.118 Y14.816 E0.1938
G1 X-0.797 Y14.816 E0.0135
G1 X6.071 Y21.684 E0.1938
G1 X5.392 Y21.684 E0.0135
G1 X-1.476 Y14.816 E0.1938
G1 X-2.155 Y14.816 E0.0135
G1 X4.713 Y21.684 E0.1938
G1 X4.035 Y21.684 E0.0135
G1 X-2.833 Y14.816 E0.1938
G1 X-3.512 Y14.816 E0.0135
G1 X3.356 Y21.684 E0.1938
G1 X2.677 Y21.684 E0.0135
G1 X-4.191 Y14.816 E0.1938
G1 X-4.870 Y14.816 E0.0135
G1 X1.998 Y21.684 E0.1938
G1 X1.319 Y21.684 E0.0135
G1 X-5.549 Y14.816 E0.1938
G1 X-6.227 Y14.816 E0.0135
G1 X0.641 Y21.684 E0.1938
G1 X-0.038 Y21.684 E0.0135
G1 X-6.906 Y14.816 E0.1938
G1 X-7.585 Y14.816 E0.0135
G1 X-0.717 Y21.684 E0.1938
G1 X-1.396 Y21.684 E0.0135
G1 X-8.264 Y14.816 E0.1938
G1 X-8.943 Y14.816 E0.0135
G1 X-2.075 Y21.684 E0.1938
G1 X-2.754 Y21.684 E0.0135
G1 X-9.622 Y14.816 E0.1938
G1 X-10.300 Y14.816 E0.0135
G1 X-3.432 Y21.684 E0.1938
G1 X-4.111 Y21.684 E0.0135
G1 X-10.979 Y14.816 E0.1938
G1 X-11.658 Y14.816 E0.0135
G1 X-4.790 Y21.684 E0.1938
G1 X-5.469 Y21.684 E0.0135
G1 X-12.337 Y14.816 E0.1938
G1 X-13.016 Y14.816 E0.0135
G1 X-6.148 Y21.684 E0.1938
G1 X-6.827 Y21.684 E0.0135
G1 X-13.695 Y14.816 E0.1938
G1 X-21.082 Y21.684 F4000
G1 X-21.684 Y21.082 E0.0170 F800
G1 X-21.684 Y20.403 E0.0135
G1 X-20.403 Y21.684 E0.0362
G1 X-19.724 Y21.684 E0.0135
G1 X-21.684 Y19.724 E0.0553
G1 X-21.684 Y19.045 E0.0135
G1 X-19.045 Y21.684 E0.0745
G1 X-18.367 Y21.684 E0.0135
G1 X-21.684 Y18.367 E0.0936
G1 X-21.684 Y17.688 E0.0135
G1 X-17.688 Y21.684 E0.1128
G1 X-17.009 Y21.684 E0.0135
G1 X-21.684 Y17.009 E0.1319
G1 X-21.684 Y16.330 E0.0135
G1 X-16.330 Y21.684 E0.1511
G1 X-15.651 Y21.684 E0.0135
G1 X-21.684 Y15.651 E0.1703
G1 X-21.684 Y14.972 E0.0135
G1 X-14.972 Y21.684 E0.1894
G1 X-14.294 Y21.684 E0.0135
G1 X-21.684 Y14.294 E0.2086
G1 X-21.684 Y13.615 E0.0135
G1 X-13.615 Y21.684 E0.2277
G1 X-12.936 Y21.684 E0.0135
G1 X-21.684 Y12.936 E0.2469
G1 X-21.684 Y12.257 E0.0135
G1 X-12.257 Y21.684 E0.2660
G1 X-11.578 Y21.684 E0.0135
G1 X-21.684 Y11.578 E0.2852
G1 X-21.684 Y10.899 E0.0135
G1 X-10.899 Y21.684 E0.3044
G1 X-10.221 Y21.684 E0.0135
G1 X-21.684 Y10.221 E0.3235
G1 X-21.684 Y9.542 E0.0135
G1 X-9.542 Y21.684 E0.3427
G1 X-8.863 Y21.684 E0.0135
G1 X-21.684 Y8.863 E0.3618
G1 X-21.684 Y8.184 E0.0135
G1 X-8.184 Y21.684 E0.3810
G1 X-7.505 Y21.684 E0.0135
G1 X-21.684 Y7.505 E0.4002
G1 X-21.684 Y6.827 E0.0135
G1 X-14.316 Y14.195 E0.2079
G1 X-14.316 Y13.516 E0.0135
G1 X-21.684 Y6.148 E0.2079
G1 X-21.684 Y5.469 E0.0135
G1 X-14.316 Y12.837 E0.2079
G1 X-14.316 Y12.158 E0.0135
G1 X-21.684 Y4.790 E0.2079
G1 X-21.684 Y4.111 E0.0135
G1 X-14.316 Y11.479 E0.2079
G1 X-14.316 Y10.800 E0.0135
G1 X-21.684 Y3.432 E0.2079
G1 X-21.684 Y2.754 E0.0135
G1 X-14.316 Y10.122 E0.2079
G1 X-14.316 Y9.443 E0.0135
G1 X-21.684 Y2.075 E0.2079
G1 X-21.684 Y1.396 E0.0135
G1 X-14.316 Y8.764 E0.2079
G1 X-14.316 Y8.085 E0.0135
G1 X-21.684 Y0.717 E0.2079
G1 X-21.684 Y0.038 E0.0135
G1 X-14.316 Y7.406 E0.2079
G1 X-14.316 Y6.727 E0.0135
G1 X-21.684 Y-0.641 E0.2079
G1 X-21.684 Y-1.319 E0.0135
G1 X-14.316 Y6.049 E0.2079
G1 X-14.316 Y5.370 E0.0135
G1 X-21.684 Y-1.998 E0.2079
G1 X-21.684 Y-2.677 E0.0135
G1 X-14.316 Y4.691 E0.2079
G1 X-14.316 Y4.012 E0.0135
G1 X-21.684 Y-3.356 E0.2079
G1 X-21.684 Y-4.035 E0.0135
G1 X-14.316 Y3.333 E0.2079
G1 X-14.316 Y2.655 E0.0135
G1 X-21.684 Y-4.713 E0.2079
G1 X-21.684 Y-5.392 E0.0135
G1 X-14.316 Y1.976 E0.2079
G1 X-14.316 Y1.297 E0.0135
G1 X-21.684 Y-6.071 E0.2079
G1 X-21.684 Y-6.750 E0.0135
G1 X-14.316 Y0.618 E0.2079
G1 X-14.316 Y-0.061 E0.0135
G1 X-21.684 Y-7.429 E0.2079
G1 X-21.684 Y-8.108 E0.0135
G1 X-14.316 Y-0.740 E0.2079
G1 X-14.316 Y-1.418 E0.0135
G1 X-21.684 Y-8.786 E0.2079
G1 X-21.684 Y-9.465 E0.0135
G1 X-14.035 Y-1.816 E0.2159
G1 X-13.356 Y-1.816 E0.0135
G1 X-21.684 Y-10.144 E0.2350
G1 X-21.684 Y-10.823 E0.0135
G1 X-12.677 Y-1.816 E0.2542
G1 X-11.998 Y-1.816 E0.0135
G1 X-21.684 Y-11.502 E0.2734
G1 X-21.684 Y-12.180 E0.0135
G1 X-11.320 Y-1.816 E0.2925
G1 X-10.641 Y-1.816 E0.0135
